public/assets/images/icon/icon_13.svg

<svg width="25" height="31" viewBox="0 0 25 31" fill="none" xmlns="http://www.w3.org/2000/svg">
<path d="M12.8334 21.1776C16.057 21.1776 18.8796 21.4445 20.8565 22.1447C21.8367 22.4918 22.5213 22.9157 22.9519 23.3857C23.3568 23.8275 23.5834 24.3571 23.5834 25.0652C23.5834 25.7712 23.3564 26.297 22.9509 26.7354C22.5188 27.2025 21.8316 27.623 20.8482 27.9664C18.8652 28.659 16.0412 28.9167 12.8334 28.9167C9.61054 28.9167 6.78794 28.6499 4.81073 27.9497C3.83046 27.6025 3.1457 27.1787 2.71494 26.7087C2.30999 26.2668 2.08337 25.7372 2.08337 25.0292C2.08337 24.3232 2.31039 23.7973 2.71588 23.359C3.14798 22.8919 3.83517 22.4714 4.81854 22.1279C6.80158 21.4354 9.62555 21.1776 12.8334 21.1776ZM12.8334 1.41675C16.5523 1.41675 19.5244 4.38872 19.5244 8.10333C19.5244 11.8182 16.5519 14.7914 12.8334 14.7914C9.11615 14.7914 6.1424 11.8181 6.1424 8.10333C6.1424 4.38888 9.11584 1.41675 12.8334 1.41675Z" stroke="#009A42" stroke-width="2.5"/>
</svg>

<svg xmlns="http://www.w3.org/2000/svg" width="24" height="30" viewBox="0 0 24 30">
  <path id="icon_13" d="M12.833,21.178a25.647,25.647,0,0,1,8.023.967,5.117,5.117,0,0,1,2.1,1.241,2.355,2.355,0,0,1,.632,1.68,2.328,2.328,0,0,1-.633,1.67,5.128,5.128,0,0,1-2.1,1.231,25.967,25.967,0,0,1-8.015.95,25.649,25.649,0,0,1-8.023-.967,5.12,5.12,0,0,1-2.1-1.241,2.355,2.355,0,0,1-.632-1.68,2.328,2.328,0,0,1,.633-1.67,5.129,5.129,0,0,1,2.1-1.231A25.971,25.971,0,0,1,12.833,21.178Zm0-19.761A6.687,6.687,0,1,1,6.142,8.1,6.66,6.66,0,0,1,12.833,1.417Z" transform="translate(-0.833 -0.167)" fill="none" stroke="#fff" stroke-width="2.5"/>
</svg>
